icon-themes/sifr_svg/cmd/sc_fontworkshapetype.fontwork-stop.svg

<svg viewBox="0 0 16 16" xmlns="http://www.w3.org/2000/svg"><g fill="#555753"><path d="m4 1-3 3v8l3 3h8l3-3v-8l-3-3zm.828125 2h6.34375l1.828125 1.828125v6.34375l-1.828125 1.828125h-6.34375l-1.828125-1.828125v-6.34375z"/><path d="m4.828125 3h6.34375l1.828125 1.828125v6.34375l-1.828125 1.828125h-6.34375l-1.828125-1.828125v-6.34375z" opacity=".35"/></g></svg>

<svg xmlns="http://www.w3.org/2000/svg" viewBox="0 0 16 16">
  <path
     style="fill:#555753"
     d="M 4 1 L 1 4 L 1 12 L 4 15 L 12 15 L 15 12 L 15 4 L 12 1 L 4 1 z M 4.828125 3 L 11.171875 3 L 13 4.828125 L 13 11.171875 L 11.171875 13 L 4.828125 13 L 3 11.171875 L 3 4.828125 L 4.828125 3 z "
     />
  <path
     style="fill:#555753;opacity:0.35"
     d="m 4.828125,3 h 6.34375 L 13,4.828125 v 6.34375 L 11.171875,13 H 4.828125 L 3,11.171875 v -6.34375 z"
     />
</svg>
